X:1
T:All people that on earth do dwell - Tallis
T:#
%%score [ 1 2 3 4 ]
L:1/8
Q:1/4=84
M:4/4
K:C
V:1 treble nm="Soprano" snm="S"
V:2 treble nm="Alto" snm="A"
V:3 treble-8 nm="Tenor" snm="T"
V:4 treble nm="Bass" snm="B"
V:1
"^All people that on earth do dwell""^Verse" G4 c2 d2 | e2 c2 B2 c2 | d2 d4 dd | %3
w: All peo- ple|that on earth do|dwell, Sing to the|
 (cd) (cB) A3"^Thomas Tallis (attrib.)\n(1505-1585)" A | B2 z2 z4 | z8 | z8 | z8 | z2 || %9
w: Lord * with * cheer- ful|voice;|||||
"^Full" G2 A2 A2 | G2 G2 _B2 B2 | (AG) (A_B) (cd) (cB) | A2 G2 G2 ^F2 | G2 G2 G2 A2 | B2 G2 c2 c2 | %15
w: The Lord, ye|know, is God in-|deed, * With\- * out * our *|aid he did us|make; We are his|flock, he doth us|
 B2 G2 A3 A | A2 G2 G2 G2 | G2 ||"^Verse" G2 c2 d2 | e2 c2 B2 c2 | d2 d2 d2 d2 | (cd) (cB) A3 A | %22
w: feed, And for his|sheep he doth us|take.|O en- ter|then his gates with|praise, Ap- proach with|joy * his * courts un-|
 B2 z2 z4 | z8 | z8 | z8 | z8 | z2"^Full" c2 c2 G2 | B2 A2 c3 c | G2 z2 z2 c2 | c2 G2 B2 A2 | %31
w: to;|||||For why? the|Lord our God is|good: His|mer- cy is for|
 c2 BB A3 A | G8 | z2 C2 F2 F2 | E2 E2 D2 D2 | C4 z2 G2 | c6 B2- | B2 A3 G G2- | G2 ^F2 G4- | %39
w: ev- er, for ev- er|sure;|His truth hath|al- ways firm- ly|stood, And|shall from|* age to age|* en- dure,|
 G2 G2 G3 G | G6 G2 | A6 A2 | G4 (FGAB) | c2 (dc BABc) | d2 G4 A2 | G4 !fermata!G8 |] %46
w: * to age en-|dure. A-|men, a-|men, a\- * * *|men, a\- * * * * *|men, a- men,|a- men.|
V:2
 E4 E2 G2 | G2 A2 G3 A | B2 B4 BB | (AB) (AG)"^'" G3 ^F | G2 D2 G2 E2 | F3 E C2 F2 | E2 E2 G3 G | %7
w: All peo- ple|that on earth do|dwell, Sing to the|Lord * with * cheer- ful|voice; Him serve with|fear, his praise forth|tell, Come ye be-|
 (FE) (DC) D2 (EF) | E2 || E2 F2 F2 | E2 E2 (DC) (DE) | F2 F2 E2 E2 | A,2 (B,C) (DE) (DC) | %13
w: fore * him * and re\- *|joice,|The Lord, ye|know, is God * in\- *|deed, With- out our|aid he * did * us *|
 B,2 C2 E2 ^F2 | G2 G2 G2 ^F2 | G2 D2 =F3 F | F2 E2 D2 D2 | E2 || E2 E2 G2 | G2 A2 G3 A | %20
w: make; We are his|flock, he doth us|feed, And for his|sheep he doth us|take.|O en- ter|then his gates with|
 B2 B2 B2 B2 | (AB) (AG) G2 ^F2 | G2 D2 G2 E2 | F3 E C2 F2 | E2 E2 G3 G | (FE) (DC) D2 (EF) | %26
w: praise, Ap- proach with|joy * his * courts un-|to; Praise, laud, and|bless his name al-|ways, For it is|seem\- * ly * so to *|
 E4 z2"^Full" G2 | G2 C2 E4 | D2 F3 F E2 | z2 F2 F2 C2 | E4 D2 F2- | FD G4 ^F2 | G2 D2 E3 D | %33
w: do. For|why? the Lord|our God is good:|His mer- cy|is for ev\-|* er, ev- er|sure, for ev- er|
 C4"^'" z2 A,2 | C2 C2 B,2"^.\n." B,2 | A,2 A,2 G,4 | z2 A,2 D3 E | (F4- FE) (DC) | %38
w: sure; His|truth hath al- ways|firm- ly stood,|And shall from|age * * to *|
 (DE) (DC) B,2 E2 | D2 C2 C3 B, | C2 C2 D2 E2 | F6 F2 | E4 (DEFD) | G2 (FE DCDE) | F2 (E3 D FE | %45
w: age * en\- * dure, from|age to age en-|dure. A- men, a-|men, a-|men, a\- * * *|men, a\- * * * * *|men, a\- * * *|
 D4) !fermata!E8 |] %46
w: * men.|
V:3
 c4 c2 B2 | c3 d e2 c2 | g2 (GA) (Bc) (de) | f2 c2 d3 d | G2 B2 B2 ^c2 | d3 =c A2 B2 | %6
w: All peo- ple|that on earth do|dwell, Sing * to * the *|Lord with cheer- ful|voice; Him serve with|fear, his praise forth|
 c2 c2 (cB) (AG) | (AB) c2 c3 B | c2 || c2 c2 c2 | c2 c2 _B2 G2 | d2 d2"^'" c2 A2 | d2 B2 A2 A2 | %13
w: tell, Come ye * be\- *|fore * him and re-|joice,|The Lord, ye|know, is God in-|deed, With- out our|aid he did us|
 G2 G2 c2 c2 | d3 e (fe) (dc) | d2 B2 c3 c | c2 c2 c2 B2 | c2 || c2 c2 B2 | c3 d e2 c2 | %20
w: make; We are his|flock, he doth * us *|feed, And for his|sheep he doth us|take,|O en- ter|then his gates with|
 g2 (GA) (Bc) (de) | f2 c2 d2 d2 | G2 B2 B2 ^c2 | d3 =c A2 B2 | c2 c2 (cB) (AG) | (AB) c2 c3 B | %26
w: praise, Ap\- * proach * with *|joy his courts un-|to; Praise, laud, and|bless his name al-|ways, For it * is *|seem\- * ly so to|
 c2"^Full" c2 c2 G2 | B2 A2 c3 c | G2 z2 z2 c2 | c2 F2 A3 A | G2 c2 B2 z2 | z2 G2 d3 c | %32
w: do, For why? the|Lord our God is|good: His|mer- cy is for|ev- er sure,|his mer- cy|
 B2 G2 c3 B | AG A4 (GF) |"^." G2 C2 (G3 F) | (ED E3) D G2- | G2 ^F2 G2 B2 | d2 d2 c2 B2 | %38
w: is for ev- er,|is for ev- er *|sure; His truth *|hath * al- ways firm\-|* ly stood, And|shall from age to|
 A2 A2 G2 G2 | F2 E2 D3 D | E2 E2 G2 c2 | A2 c2 F2 c2- | (cABc) d2 (c2- | cB A2) G4- | %44
w: age en- dure, from|age to age en-|dure. A- men, a-|men, a- men, a\-|* * * * men, a\-|* * * men,|
 G2 (c3 B dc) | c2 B2 !fermata!c8 |] %46
w: * a\- * * *|men, a- men.|
V:4
 z8 | z8 | z8 | z8 |[M:4/4][K:bass] z2"^Verse" G,2 E,2 A,2 | D,3 E, F,2 D,2 | A,2 A,2 E,3 E, | %7
w: ||||Him serve with|fear, his praise forth|tell, Come ye be-|
 F,2 A,2 G,3 G, | C,2 || C,2 F,2 F,2 | C,2 C,2 G,2 G,2 | (D,E,) (F,G,) (A,_B,) (A,G,) | %12
w: fore him and re-|joice.|The Lord, ye|know, is God in-|deed, * With\- * out * our *|
 ^F,2 G,2 D,2 D,2 | G,,2 C,2 C,2 A,,2 | G,,2 G,2 A,2 A,2 | G,2 G,2 F,3 F, | F,2 C,2 G,2"^." G,,2 | %17
w: aid he did us|make; We are his|flock, he doth us|feed, And for his|sheep he doth us|
 C,2 ||[M:4/4] z6 | z8 | z8 | z8 |[M:4/4] z2"^Verse" G,2 E,2 A,2 | D,3 E, F,2 D,2 | %24
w: take.|||||Praise, laud, and|bless his name al-|
 A,2 A,2 E,3 E, | F,2 A,2 G,3 G, | C,4 z4 | z8 | z2"^Full" F,2 F,2 C,2 | E,2 D,2 F,3 F, | %30
w: ways, For it is|seem- ly so to|do.||For why? the|Lord our God is|
 (C,D,) (E,F,) G,2 F,2 | ^F,2 G,2 D,2 D,2 | G,3 =F, E,2 C,2 | F,3 E, D,2 D,2 | C,4 z2 G,,2 | %35
w: good: * His * mer- cy|is for ev- er|sure, his mer- cy|is for ev- er|sure; His|
 C,2 C,2 B,,2 B,,2 | A,,2 A,,2 G,,2 G,2 | D,3 E, ^F,2 G,2 | D,2 D,2 G,,3 A,, | B,,2 C,2 G,,3 G,, | %40
w: truth hath al- ways|firm- ly stood, And|shall from age to|age en- dure, from|age to age en-|
 C,2 C,2 B,,2 C,2 | F,,2 (F,,G,, A,,B,,C,D,) | (E,F,G,A,) _B,2 (A,G,/F,/ | E,2 F,2 G,4) | %44
w: dure. A- men, a-|men, a\- * * * * *|* * * * men, a\- * *||
 B,,2 C,2 G,,2 F,,2 | G,,3 G,, !fermata!C,8 |] %46
w: men, a- men, a-|men, a- men.|

